src/assets/filled/ElementEqual.svg

<?xml version="1.0" encoding="UTF-8"?>
<svg width="24" height="24" viewBox="0 0 24 24" xmlns="http://www.w3.org/2000/svg">
 <path d="m21 16.25h-6c-0.41 0-0.75-0.34-0.75-0.75s0.34-0.75 0.75-0.75h6c0.41 0 0.75 0.34 0.75 0.75s-0.34 0.75-0.75 0.75z"/>
 <path d="m21 20.25h-6c-0.41 0-0.75-0.34-0.75-0.75s0.34-0.75 0.75-0.75h6c0.41 0 0.75 0.34 0.75 0.75s-0.34 0.75-0.75 0.75z"/>
 <path d="m22 8.52v-4.54c0-1.41-0.64-1.98-2.23-1.98h-4.04c-1.59 0-2.23 0.57-2.23 1.98v4.53c0 1.42 0.64 1.98 2.23 1.98h4.04c1.59 0.01 2.23-0.56 2.23-1.97z"/>
 <path d="M10.5 8.52V3.98C10.5 2.57 9.86 2 8.27 2H4.23C2.64 2 2 2.57 2 3.98V8.51C2 9.93 2.64 10.49 4.23 10.49H8.27C9.86 10.5 10.5 9.93 10.5 8.52Z"/>
 <path d="m10.5 19.77v-4.04c0-1.59-0.64-2.23-2.23-2.23h-4.04c-1.59 0-2.23 0.64-2.23 2.23v4.04c0 1.59 0.64 2.23 2.23 2.23h4.04c1.59 0 2.23-0.64 2.23-2.23z"/>
</svg>

<svg width="24" height="24" viewBox="0 0 24 24"  xmlns="http://www.w3.org/2000/svg">
<path d="M21 16.25H15C14.59 16.25 14.25 15.91 14.25 15.5C14.25 15.09 14.59 14.75 15 14.75H21C21.41 14.75 21.75 15.09 21.75 15.5C21.75 15.91 21.41 16.25 21 16.25Z" />
<path d="M21 20.25H15C14.59 20.25 14.25 19.91 14.25 19.5C14.25 19.09 14.59 18.75 15 18.75H21C21.41 18.75 21.75 19.09 21.75 19.5C21.75 19.91 21.41 20.25 21 20.25Z" />
<path d="M22 8.52V3.98C22 2.57 21.36 2 19.77 2H15.73C14.14 2 13.5 2.57 13.5 3.98V8.51C13.5 9.93 14.14 10.49 15.73 10.49H19.77C21.36 10.5 22 9.93 22 8.52Z" />
<path d="M10.5 8.52V3.98C10.5 2.57 9.86 2 8.27 2H4.23C2.64 2 2 2.57 2 3.98V8.51C2 9.93 2.64 10.49 4.23 10.49H8.27C9.86 10.5 10.5 9.93 10.5 8.52Z" />
<path d="M10.5 19.77V15.73C10.5 14.14 9.86 13.5 8.27 13.5H4.23C2.64 13.5 2 14.14 2 15.73V19.77C2 21.36 2.64 22 4.23 22H8.27C9.86 22 10.5 21.36 10.5 19.77Z" />
</svg>
